public/avatar/body/234.svg

<svg xmlns:xlink="http://www.w3.org/1999/xlink" height="82" width="84.85" xmlns="http://www.w3.org/2000/svg"><g transform="translate(37.4 42.25)"><use height="38" transform="translate(-11.95 -17.45)" width="32.05" xlink:href="#a"/><use height="38.95" transform="translate(-12.45 -17.95)" width="33.05" xlink:href="#b"/><use height="9.65" transform="translate(-12.65 15.2)" width="32.6" xlink:href="#c"/><use height="10" transform="translate(-12.1 14.3)" width="31.6" xlink:href="#d"/><use height="6.45" transform="translate(-11.95 17.35)" width="31.55" xlink:href="#e"/><use height="6.15" transform="translate(-11.9 17.35)" width="22.1" xlink:href="#f"/><use height="20.4" transform="translate(-11.9 .05)" width="31.95" xlink:href="#g"/><use height="9.85" transform="translate(-8 8.05)" width="24.9" xlink:href="#h"/><use height="5.05" transform="translate(-9.65 16.85)" width="27.35" xlink:href="#i"/><use height="4.85" transform="translate(-9.55 16.35)" width="27.4" xlink:href="#j"/><use height="2.9" transform="translate(-9.15 17.2)" width="15.7" xlink:href="#k"/><use height="2.75" transform="translate(7.3 17.4)" width="7.05" xlink:href="#l"/><use height="4" transform="translate(1.7 17.5)" width="6.4" xlink:href="#m"/><use height="1.9" transform="translate(13.65 17)" width="2.5" xlink:href="#n"/><use height="3.45" transform="translate(-9.55 16.35)" width="22.25" xlink:href="#o"/></g><defs><use height="38" width="32.05" xlink:href="#p" id="a"/><use height="38.95" width="33.05" xlink:href="#q" id="b"/><use height="9.65" width="32.6" xlink:href="#r" id="c"/><use height="10" width="31.6" xlink:href="#s" id="d"/><use height="6.45" width="31.55" xlink:href="#t" id="e"/><use height="6.15" width="22.1" xlink:href="#u" id="f"/><use height="20.4" width="31.95" xlink:href="#v" id="g"/><use height="5.05" width="27.35" xlink:href="#w" id="i"/><use height="4.85" width="27.4" xlink:href="#x" id="j"/><use height="2.9" width="15.7" xlink:href="#y" id="k"/><use height="2.75" width="7.05" xlink:href="#z" id="l"/><use height="1.9" width="2.5" xlink:href="#A" id="n"/><use height="3.45" width="22.25" xlink:href="#B" id="o"/><path d="m10.7 3.1.9.2-.6 2.95-2.55-.3-1.6-.35.7-3.05.95-.05.75.25.5 2.35.95-2m10.55 1.15.3 1.9-.9.1-3.6.2.55-2.25.85.35L20.3 5.8l.95-1.55M28.45 1l1.2-.65 1.8 3.25q.25.3-.05.9-.1.35-1.45.5l-1.5-4M2.3 0l.55.65 1.2.65-1.8 3.2L.3 4.05q-.5-.2-.2-.8L2.3 0m19.55 3.05 1.45-.3L22.9 6l-.85.05-.2-3" id="t" fill="#750023" fill-rule="evenodd"/><path d="m2.25 0 .55.75L1.05 4.3.15 4Q-.3 3.75.8 1.95L2.25 0m5.3 2.5 1.1.25L7.9 6l-1.4-.3q-.2 0-.2-1.1l1.25-2.1m13.35.75L22.1 3v3.1l-.6.05-.6-2.9" id="u" fill="#b50036" fill-rule="evenodd"/><path d="m6.6 1.5-1.3.55L6.05.2l1-.2-.35 1.55-.1-.05M.05.95 2.7 2.1l.55.3-1.95.3-1.1.05-.1-.15v-.25L0 1 .05.95" id="z" fill="#ba048b" fill-rule="evenodd"/><path d="M27.35 7.4q2.15 4.15 3.55 8.75 1.45 4.7 1.15 9.5-.35 4.95-4.2 8.1-3.8 3.2-8.75 4.05l-2.6.2q-3.6 0-7.05-1.15-4.65-1.6-7.1-5.5Q-.2 27.4.05 23q.2-4.4 2-9.3Q3.85 8.75 7 5.05 10.1 1.3 14.7.1l1.8-.1q1.9.05 3.7.8 4.75 2.05 7.15 6.6" fill="#fff" fill-rule="evenodd" transform="translate(-.05)" id="p"/><path d="M27.35 7.4Q24.95 2.85 20.2.8 17.55-.3 14.7.1 10.1 1.3 7 5.05q-3.15 3.7-4.95 8.65-1.8 4.9-2 9.3-.25 4.4 2.3 8.35 2.45 3.9 7.1 5.5 4.65 1.55 9.65.95 4.95-.85 8.75-4.05 3.85-3.15 4.2-8.1.3-4.8-1.15-9.5-1.4-4.6-3.55-8.75Z" fill="none" stroke="#000" stroke-linecap="round" stroke-linejoin="round" transform="translate(.45 .5)" id="q"/><path d="M26.95 1.55Q28.4.85 29.15 0l3.3 5.4q.6 1.6-1.1 2-3.7 1.1-4.05.85l-.95-2.65q-.2 2.8-1.15 3.1l-8.2.95h-1.4L7.45 8.7q-.6-.2-.95-1.65L6.25 5.6 5.3 8.25q-.35.25-4.05-.85-1.7-.45-1.05-2l2.05-3.3q.15-.55 1-1.3T5 .55L15.45 4.5h1.7q8.35-2.3 9.8-2.95" fill-rule="evenodd" id="r"/><path d="M30.3 4.35q1.55 2.55 1.25 3.2l-4.3 1.15q-.45.1-1.35-3.3-.9 3.75-1.4 3.8l-7.95.8h-1.1L7.1 9.15q-.3-.05-.6-2t-.55-2q-.3-.05-1.05 1.7l-1 1.65L.05 7.45Q-.25 6.8 1.5 4.3q1.05-1.5 2.05-2.65Q9 .2 15.3 0h1.4q6.3.2 11.8 1.65l1.8 2.7" fill="#420014" fill-rule="evenodd" id="s"/><path d="m27.35.8-2.7 1.6-6.55 1.5q-.35 1.15-3.25 1.15L12 4.55l-.75-.5-3.65-.5L1.4 1.7Q.5 1.45.15.7L0 0q9.45 2.2 14.6 2.2T27.35.05V.8" fill-rule="evenodd" id="w"/><path d="M4.85 21.2q2.25 0 2.25-1.75T4.85 17.7q-2.25 0-2.25 1.75t2.25 1.75m3.25-1.7q0 2-3.55 2-2.85 0-2.85-2t2.85-2q3.55 0 3.55 2" fill="#510335" fill-rule="evenodd" transform="translate(-1.7 -17.5)" id="m"/><path d="m2.5 0-.35 1.25-1.9.65q-.55.2.2-1.5L2.5 0" fill="#990479" fill-rule="evenodd" id="A"/><g id="v" fill-rule="evenodd"><path d="M28.15 9q1.8 1.4 2.5 1.35.5-.05.15 3.25l-.65 3.5q-2.9 3.3-13.35 3.3l-9.25-.7-2.05-.8q-1.3-.25-3.6-2.3-.4-.4-.25-6.25Q7.5 7.1 7.15 6.5l.9.35q5.9 2.9 11.9 1.85 3-.5 4.8-1.6l1.45-.55q-.05 1 1.95 2.45"/><path d="M28.45 4.6q-3.3 3-2.95 3.85l-1.7-.7q1.65-1 2.5-2Q30.3 1 31.6.5q.45 1 .3 1.15L28.45 4.6M9.65 7.75l-2.1.6q.4-.85-3.45-4.05L.05 1.2Q-.1 1.05.4 0q1.05.2 5.9 5.45.6.65 3.35 2.3"/></g><g id="h" fill-rule="evenodd"><path d="M5.75 11.8q0 .9-.9.9t-.9-.9q0-.9.9-.9t.9.9" fill="#fffcff" transform="translate(8 -8.05)"/><path d="M2.25 10.15q0-.9.9-.9t.9.9q0 .9-.9.9t-.9-.9" fill="#ffbfff" transform="translate(8 -8.05)"/><path d="M2.2 11.3q0 .9-.9.9t-.9-.9q0-.9.9-.9t.9.9M.35 13.55q0-.9.9-.9t.9.9q0 .9-.9.9t-.9-.9" fill="#fffcff" transform="translate(8 -8.05)"/><path d="M1.75 15.25q0-.9.9-.9t.9.9q0 .9-.9.9t-.9-.9" fill="#ffa3ff" transform="translate(8 -8.05)"/><path d="M7.45 10.15q0 .9-.9.9t-.9-.9q0-.9.9-.9t.9.9m7-.8q0 .9-.9.9t-.9-.9q0-.9.9-.9t.9.9m1 2.2q.9 0 .9.9t-.9.9q-.9 0-.9-.9t.9-.9m.55 3.2q.9 0 .9.9t-.9.9q-.9 0-.9-.9t.9-.9m-21.6-5.8q0-.9.9-.9t.9.9q0 .9-.9.9t-.9-.9m-.05 3.15q0 .9-.9.9t-.9-.9q0-.9.9-.9t.9.9M-8 15.25q0-.9.9-.9t.9.9q0 .9-.9.9t-.9-.9" fill="#ffbfff" transform="translate(8 -8.05)"/><path d="M7.45 11.3q0-.9.9-.9t.9.9q0 .9-.9.9t-.9-.9m1.85 2.25q0 .9-.9.9t-.9-.9q0-.9.9-.9t.9.9" fill="#fffcff" transform="translate(8 -8.05)"/><path d="M7.95 15.25q0 .9-.9.9t-.9-.9q0-.9.9-.9t.9.9" fill="#ffa3ff" transform="translate(8 -8.05)"/><path d="M3.95 17q0-.9.9-.9t.9.9q0 .9-.9.9t-.9-.9" fill="#fffcff" transform="translate(8 -8.05)"/></g><g id="x" fill="#f4069f" fill-rule="evenodd"><path d="M0 0q7.55 2.1 13.75 2.1T27.4.25l-.75 1.1q-5.1 2.8-13.1 2.8t-12.9-3L0 0"/><path d="M16.65 3.1q0 1.75-2.25 1.75T12.15 3.1q0-1.75 2.25-1.75t2.25 1.75"/></g><g id="y" fill="#f958c8" fill-rule="evenodd"><path d="m8.05 2.9-1.5-.3-.1-1.55 1.75.2-.1.3-.05 1.35"/><path d="m11.3 1.05-.3.5-2.15.15-6.35-.3L.25.5 0 0l4.85.45 6.45.6m.45 1.1q-.1-.8 1.15-1.45 1.2-.65 2.4.2 1.1.8-.8 1.35l-2.75-.1"/></g><g id="B" fill="#f79adf" fill-rule="evenodd"><path d="m17.55 2.3-.15-.05-.45-.45 5.3-.45-4.7.95M.4.85 0 0l5.65 1.25 5.75.85-6.2-.35L.4.85M12.7 2.4q-.3-.4.45-.7 1.15-.45 1.45 0 .35.45-.7.8l-1.2-.1"/><path d="m6.05 3.2.05-1.55 1.05.15-.2 1.65-.9-.25"/></g></defs></svg>

<?xml version="1.0" encoding="UTF-8" standalone="no"?>
<svg xmlns:xlink="http://www.w3.org/1999/xlink" height="82.0px" width="84.85px" xmlns="http://www.w3.org/2000/svg">
  <g transform="matrix(1.0, 0.0, 0.0, 1.0, 37.4, 42.25)">
    <use height="38.0" transform="matrix(1.0, 0.0, 0.0, 1.0, -11.95, -17.45)" width="32.05" xlink:href="#sprite0"/>
    <use height="38.95" transform="matrix(1.0, 0.0, 0.0, 1.0, -12.45, -17.95)" width="33.05" xlink:href="#sprite1"/>
    <use height="9.65" transform="matrix(1.0, 0.0, 0.0, 1.0, -12.65, 15.2)" width="32.6" xlink:href="#sprite2"/>
    <use height="10.0" transform="matrix(1.0, 0.0, 0.0, 1.0, -12.1, 14.3)" width="31.6" xlink:href="#sprite3"/>
    <use height="6.45" transform="matrix(1.0, 0.0, 0.0, 1.0, -11.95, 17.35)" width="31.55" xlink:href="#sprite4"/>
    <use height="6.15" transform="matrix(1.0, 0.0, 0.0, 1.0, -11.9, 17.35)" width="22.1" xlink:href="#sprite5"/>
    <use height="20.4" transform="matrix(1.0, 0.0, 0.0, 1.0, -11.9, 0.05)" width="31.95" xlink:href="#sprite6"/>
    <use height="9.85" transform="matrix(1.0, 0.0, 0.0, 1.0, -8.0, 8.05)" width="24.9" xlink:href="#shape7"/>
    <use height="5.05" transform="matrix(1.0, 0.0, 0.0, 1.0, -9.65, 16.85)" width="27.35" xlink:href="#sprite7"/>
    <use height="4.85" transform="matrix(1.0, 0.0, 0.0, 1.0, -9.55, 16.35)" width="27.4" xlink:href="#sprite8"/>
    <use height="2.9" transform="matrix(1.0, 0.0, 0.0, 1.0, -9.15, 17.2)" width="15.7" xlink:href="#sprite9"/>
    <use height="2.75" transform="matrix(1.0, 0.0, 0.0, 1.0, 7.3, 17.4)" width="7.05" xlink:href="#sprite10"/>
    <use height="4.0" transform="matrix(1.0, 0.0, 0.0, 1.0, 1.7, 17.5)" width="6.4" xlink:href="#shape12"/>
    <use height="1.9" transform="matrix(1.0, 0.0, 0.0, 1.0, 13.65, 17.0)" width="2.5" xlink:href="#sprite11"/>
    <use height="3.45" transform="matrix(1.0, 0.0, 0.0, 1.0, -9.55, 16.35)" width="22.25" xlink:href="#sprite12"/>
  </g>
  <defs>
    <g id="sprite0" transform="matrix(1.0, 0.0, 0.0, 1.0, -0.05, 0.0)">
      <use height="38.0" transform="matrix(1.0, 0.0, 0.0, 1.0, 0.05, 0.0)" width="32.05" xlink:href="#shape0"/>
    </g>
    <g id="shape0" transform="matrix(1.0, 0.0, 0.0, 1.0, -0.05, 0.0)">
      <path d="M27.35 7.4 Q29.5 11.55 30.9 16.15 32.35 20.85 32.05 25.65 31.7 30.6 27.85 33.75 24.05 36.95 19.1 37.8 L16.5 38.0 Q12.9 38.0 9.45 36.85 4.8 35.25 2.35 31.35 -0.2 27.4 0.05 23.0 0.25 18.6 2.05 13.7 3.85 8.75 7.0 5.05 10.1 1.3 14.7 0.1 L16.5 0.0 Q18.4 0.05 20.2 0.8 24.95 2.85 27.35 7.4" fill="#ffffff" fill-rule="evenodd" stroke="none"/>
    </g>
    <g id="sprite1" transform="matrix(1.0, 0.0, 0.0, 1.0, 0.45, 0.5)">
      <use height="38.95" transform="matrix(1.0, 0.0, 0.0, 1.0, -0.45, -0.5)" width="33.05" xlink:href="#shape1"/>
    </g>
    <g id="shape1" transform="matrix(1.0, 0.0, 0.0, 1.0, 0.45, 0.5)">
      <path d="M27.35 7.4 Q24.95 2.85 20.2 0.8 17.55 -0.3 14.7 0.1 10.1 1.3 7.0 5.05 3.85 8.75 2.05 13.7 0.25 18.6 0.05 23.0 -0.2 27.4 2.35 31.35 4.8 35.25 9.45 36.85 14.1 38.4 19.1 37.8 24.05 36.95 27.85 33.75 31.7 30.6 32.05 25.65 32.35 20.85 30.9 16.15 29.5 11.55 27.35 7.4 Z" fill="none" stroke="#000000" stroke-linecap="round" stroke-linejoin="round" stroke-width="1.0"/>
    </g>
    <g id="sprite2" transform="matrix(1.0, 0.0, 0.0, 1.0, 0.0, 0.0)">
      <use height="9.65" transform="matrix(1.0, 0.0, 0.0, 1.0, 0.0, 0.0)" width="32.6" xlink:href="#shape2"/>
    </g>
    <g id="shape2" transform="matrix(1.0, 0.0, 0.0, 1.0, 0.0, 0.0)">
      <path d="M26.95 1.55 Q28.4 0.85 29.15 0.0 L32.45 5.4 Q33.05 7.0 31.35 7.4 27.65 8.5 27.3 8.25 L26.35 5.6 Q26.15 8.4 25.2 8.7 L17.0 9.65 15.6 9.65 7.45 8.7 Q6.85 8.5 6.5 7.05 L6.25 5.6 5.3 8.25 Q4.95 8.5 1.25 7.4 -0.45 6.95 0.2 5.4 L2.25 2.1 Q2.4 1.55 3.25 0.8 4.1 0.05 5.0 0.55 L15.45 4.5 17.15 4.5 Q25.5 2.2 26.95 1.55" fill="#000000" fill-rule="evenodd" stroke="none"/>
    </g>
    <g id="sprite3" transform="matrix(1.0, 0.0, 0.0, 1.0, 0.0, 0.0)">
      <use height="10.0" transform="matrix(1.0, 0.0, 0.0, 1.0, 0.0, 0.0)" width="31.6" xlink:href="#shape3"/>
    </g>
    <g id="shape3" transform="matrix(1.0, 0.0, 0.0, 1.0, 0.0, 0.0)">
      <path d="M30.3 4.35 Q31.85 6.9 31.55 7.55 L27.25 8.7 Q26.8 8.8 25.9 5.4 25.0 9.15 24.5 9.2 L16.55 10.0 15.45 10.0 7.1 9.15 Q6.8 9.1 6.5 7.15 6.2 5.2 5.95 5.15 5.65 5.1 4.9 6.85 L3.9 8.5 0.05 7.45 Q-0.25 6.8 1.5 4.3 2.55 2.8 3.55 1.65 9.0 0.2 15.3 0.0 L16.7 0.0 Q23.0 0.2 28.5 1.65 L30.3 4.35" fill="#420014" fill-rule="evenodd" stroke="none"/>
    </g>
    <g id="sprite4" transform="matrix(1.0, 0.0, 0.0, 1.0, 0.0, 0.0)">
      <use height="6.45" transform="matrix(1.0, 0.0, 0.0, 1.0, 0.0, 0.0)" width="31.55" xlink:href="#shape4"/>
    </g>
    <g id="shape4" transform="matrix(1.0, 0.0, 0.0, 1.0, 0.0, 0.0)">
      <path d="M10.7 3.1 L11.6 3.3 11.0 6.25 8.45 5.95 6.85 5.6 7.55 2.55 8.5 2.5 9.25 2.75 9.75 5.1 10.7 3.1" fill="#750023" fill-rule="evenodd" stroke="none"/>
      <path d="M21.25 4.25 L21.55 6.15 20.65 6.25 17.05 6.45 17.6 4.2 18.45 4.55 20.3 5.8 21.25 4.25" fill="#750023" fill-rule="evenodd" stroke="none"/>
      <path d="M28.45 1.0 L29.65 0.35 31.45 3.6 Q31.7 3.9 31.4 4.5 31.3 4.85 29.95 5.0 L28.45 1.0" fill="#750023" fill-rule="evenodd" stroke="none"/>
      <path d="M2.3 0.0 L2.85 0.65 4.05 1.3 2.25 4.5 0.3 4.05 Q-0.2 3.85 0.1 3.25 L2.3 0.0" fill="#750023" fill-rule="evenodd" stroke="none"/>
      <path d="M21.85 3.05 L23.3 2.75 22.9 6.0 22.05 6.05 21.85 3.05" fill="#750023" fill-rule="evenodd" stroke="none"/>
    </g>
    <g id="sprite5" transform="matrix(1.0, 0.0, 0.0, 1.0, 0.0, 0.0)">
      <use height="6.15" transform="matrix(1.0, 0.0, 0.0, 1.0, 0.0, 0.0)" width="22.1" xlink:href="#shape5"/>
    </g>
    <g id="shape5" transform="matrix(1.0, 0.0, 0.0, 1.0, 0.0, 0.0)">
      <path d="M2.25 0.0 L2.8 0.75 1.05 4.3 0.15 4.0 Q-0.3 3.75 0.8 1.95 L2.25 0.0" fill="#b50036" fill-rule="evenodd" stroke="none"/>
      <path d="M7.55 2.5 L8.65 2.75 7.9 6.0 6.5 5.7 Q6.3 5.7 6.3 4.6 L7.55 2.5" fill="#b50036" fill-rule="evenodd" stroke="none"/>
      <path d="M20.9 3.25 L22.1 3.0 22.1 6.1 21.5 6.15 20.9 3.25" fill="#b50036" fill-rule="evenodd" stroke="none"/>
    </g>
    <g id="sprite6" transform="matrix(1.0, 0.0, 0.0, 1.0, 0.0, 0.0)">
      <use height="20.4" transform="matrix(1.0, 0.0, 0.0, 1.0, 0.0, 0.0)" width="31.95" xlink:href="#shape6"/>
    </g>
    <g id="shape6" transform="matrix(1.0, 0.0, 0.0, 1.0, 0.0, 0.0)">
      <path d="M28.15 9.0 Q29.95 10.4 30.65 10.35 31.15 10.3 30.8 13.6 L30.15 17.1 Q27.25 20.4 16.8 20.4 L7.55 19.7 5.5 18.9 Q4.2 18.65 1.9 16.6 1.5 16.2 1.65 10.35 7.5 7.1 7.15 6.5 L8.05 6.85 Q13.95 9.75 19.95 8.7 22.95 8.2 24.75 7.1 L26.2 6.55 Q26.15 7.55 28.15 9.0" fill="#000000" fill-rule="evenodd" stroke="none"/>
      <path d="M28.45 4.6 Q25.15 7.6 25.5 8.45 L23.8 7.75 Q25.45 6.75 26.3 5.75 30.3 1.0 31.6 0.5 32.05 1.5 31.9 1.65 L28.45 4.6" fill="#000000" fill-rule="evenodd" stroke="none"/>
      <path d="M9.65 7.75 L7.55 8.35 Q7.95 7.5 4.1 4.3 L0.05 1.2 Q-0.1 1.05 0.4 0.0 1.45 0.2 6.3 5.45 6.9 6.1 9.65 7.75" fill="#000000" fill-rule="evenodd" stroke="none"/>
    </g>
    <g id="shape7" transform="matrix(1.0, 0.0, 0.0, 1.0, 8.0, -8.05)">
      <path d="M5.75 11.8 Q5.75 12.7 4.85 12.7 3.95 12.7 3.95 11.8 3.95 10.9 4.85 10.9 5.75 10.9 5.75 11.8" fill="#fffcff" fill-rule="evenodd" stroke="none"/>
      <path d="M2.25 10.15 Q2.25 9.25 3.15 9.25 4.05 9.25 4.05 10.15 4.05 11.05 3.15 11.05 2.25 11.05 2.25 10.15" fill="#ffbfff" fill-rule="evenodd" stroke="none"/>
      <path d="M2.2 11.3 Q2.2 12.2 1.3 12.2 0.4 12.2 0.4 11.3 0.4 10.4 1.3 10.4 2.2 10.4 2.2 11.3" fill="#fffcff" fill-rule="evenodd" stroke="none"/>
      <path d="M0.35 13.55 Q0.35 12.65 1.25 12.65 2.15 12.65 2.15 13.55 2.15 14.45 1.25 14.45 0.35 14.45 0.35 13.55" fill="#fffcff" fill-rule="evenodd" stroke="none"/>
      <path d="M1.75 15.25 Q1.75 14.35 2.65 14.35 3.55 14.35 3.55 15.25 3.55 16.15 2.65 16.15 1.75 16.15 1.75 15.25" fill="#ffa3ff" fill-rule="evenodd" stroke="none"/>
      <path d="M7.45 10.15 Q7.45 11.05 6.55 11.05 5.65 11.05 5.65 10.15 5.65 9.25 6.55 9.25 7.45 9.25 7.45 10.15" fill="#ffbfff" fill-rule="evenodd" stroke="none"/>
      <path d="M14.45 9.35 Q14.45 10.25 13.55 10.25 12.65 10.25 12.65 9.35 12.65 8.45 13.55 8.45 14.45 8.45 14.45 9.35" fill="#ffbfff" fill-rule="evenodd" stroke="none"/>
      <path d="M15.45 11.55 Q16.35 11.55 16.35 12.45 16.35 13.35 15.45 13.35 14.55 13.35 14.55 12.45 14.55 11.55 15.45 11.55" fill="#ffbfff" fill-rule="evenodd" stroke="none"/>
      <path d="M16.0 14.75 Q16.9 14.75 16.9 15.65 16.9 16.55 16.0 16.55 15.1 16.55 15.1 15.65 15.1 14.75 16.0 14.75" fill="#ffbfff" fill-rule="evenodd" stroke="none"/>
      <path d="M-5.6 8.95 Q-5.6 8.05 -4.7 8.05 -3.8 8.05 -3.8 8.95 -3.8 9.85 -4.7 9.85 -5.6 9.85 -5.6 8.95" fill="#ffbfff" fill-rule="evenodd" stroke="none"/>
      <path d="M-5.65 12.1 Q-5.65 13.0 -6.55 13.0 -7.45 13.0 -7.45 12.1 -7.45 11.2 -6.55 11.2 -5.65 11.2 -5.65 12.1" fill="#ffbfff" fill-rule="evenodd" stroke="none"/>
      <path d="M-8.0 15.25 Q-8.0 14.35 -7.1 14.35 -6.2 14.35 -6.2 15.25 -6.2 16.15 -7.1 16.15 -8.0 16.15 -8.0 15.25" fill="#ffbfff" fill-rule="evenodd" stroke="none"/>
      <path d="M7.45 11.3 Q7.45 10.4 8.35 10.4 9.25 10.4 9.25 11.3 9.25 12.2 8.35 12.2 7.45 12.2 7.45 11.3" fill="#fffcff" fill-rule="evenodd" stroke="none"/>
      <path d="M9.3 13.55 Q9.3 14.45 8.4 14.45 7.5 14.45 7.5 13.55 7.5 12.65 8.4 12.65 9.3 12.65 9.3 13.55" fill="#fffcff" fill-rule="evenodd" stroke="none"/>
      <path d="M7.95 15.25 Q7.95 16.15 7.05 16.15 6.15 16.15 6.15 15.25 6.15 14.35 7.05 14.35 7.95 14.35 7.95 15.25" fill="#ffa3ff" fill-rule="evenodd" stroke="none"/>
      <path d="M3.95 17.0 Q3.95 16.1 4.85 16.1 5.75 16.1 5.75 17.0 5.75 17.9 4.85 17.9 3.95 17.9 3.95 17.0" fill="#fffcff" fill-rule="evenodd" stroke="none"/>
    </g>
    <g id="sprite7" transform="matrix(1.0, 0.0, 0.0, 1.0, 0.0, 0.0)">
      <use height="5.05" transform="matrix(1.0, 0.0, 0.0, 1.0, 0.0, 0.0)" width="27.35" xlink:href="#shape8"/>
    </g>
    <g id="shape8" transform="matrix(1.0, 0.0, 0.0, 1.0, 0.0, 0.0)">
      <path d="M27.35 0.8 L24.65 2.4 18.1 3.9 Q17.75 5.05 14.85 5.05 L12.0 4.55 11.25 4.05 7.6 3.55 1.4 1.7 Q0.5 1.45 0.15 0.7 L0.0 0.0 Q9.45 2.2 14.6 2.2 19.75 2.2 27.35 0.05 L27.35 0.8" fill="#000000" fill-rule="evenodd" stroke="none"/>
    </g>
    <g id="sprite8" transform="matrix(1.0, 0.0, 0.0, 1.0, 0.0, 0.0)">
      <use height="4.85" transform="matrix(1.0, 0.0, 0.0, 1.0, 0.0, 0.0)" width="27.4" xlink:href="#shape9"/>
    </g>
    <g id="shape9" transform="matrix(1.0, 0.0, 0.0, 1.0, 0.0, 0.0)">
      <path d="M0.0 0.0 Q7.55 2.1 13.75 2.1 19.95 2.1 27.4 0.25 L26.65 1.35 Q21.55 4.15 13.55 4.15 5.55 4.15 0.65 1.15 L0.0 0.0" fill="#f4069f" fill-rule="evenodd" stroke="none"/>
      <path d="M16.65 3.1 Q16.65 4.85 14.4 4.85 12.15 4.85 12.15 3.1 12.15 1.35 14.4 1.35 16.65 1.35 16.65 3.1" fill="#f4069f" fill-rule="evenodd" stroke="none"/>
    </g>
    <g id="sprite9" transform="matrix(1.0, 0.0, 0.0, 1.0, 0.0, 0.0)">
      <use height="2.9" transform="matrix(1.0, 0.0, 0.0, 1.0, 0.0, 0.0)" width="15.7" xlink:href="#shape10"/>
    </g>
    <g id="shape10" transform="matrix(1.0, 0.0, 0.0, 1.0, 0.0, 0.0)">
      <path d="M8.05 2.9 L6.55 2.6 6.45 1.05 8.2 1.25 8.1 1.55 8.05 2.9" fill="#f958c8" fill-rule="evenodd" stroke="none"/>
      <path d="M11.3 1.05 L11.0 1.55 8.85 1.7 2.5 1.4 0.25 0.5 0.0 0.0 4.85 0.45 11.3 1.05" fill="#f958c8" fill-rule="evenodd" stroke="none"/>
      <path d="M11.75 2.15 Q11.65 1.35 12.9 0.7 14.1 0.05 15.3 0.9 16.4 1.7 14.5 2.25 L11.75 2.15" fill="#f958c8" fill-rule="evenodd" stroke="none"/>
    </g>
    <g id="sprite10" transform="matrix(1.0, 0.0, 0.0, 1.0, 0.0, 0.0)">
      <use height="2.75" transform="matrix(1.0, 0.0, 0.0, 1.0, 0.0, 0.0)" width="7.05" xlink:href="#shape11"/>
    </g>
    <g id="shape11" transform="matrix(1.0, 0.0, 0.0, 1.0, 0.0, 0.0)">
      <path d="M6.6 1.5 L5.3 2.05 6.05 0.2 7.05 0.0 6.7 1.55 6.6 1.5" fill="#ba048b" fill-rule="evenodd" stroke="none"/>
      <path d="M0.05 0.95 L2.7 2.1 3.25 2.4 1.3 2.7 0.2 2.75 0.1 2.6 0.1 2.35 0.0 1.0 0.05 0.95" fill="#ba048b" fill-rule="evenodd" stroke="none"/>
    </g>
    <g id="shape12" transform="matrix(1.0, 0.0, 0.0, 1.0, -1.7, -17.5)">
      <path d="M4.85 21.2 Q7.1 21.2 7.1 19.45 7.1 17.7 4.85 17.7 2.6 17.7 2.6 19.45 2.6 21.2 4.85 21.2 M8.1 19.5 Q8.1 21.5 4.55 21.5 1.7 21.5 1.7 19.5 1.7 17.5 4.55 17.5 8.1 17.5 8.1 19.5" fill="#510335" fill-rule="evenodd" stroke="none"/>
    </g>
    <g id="sprite11" transform="matrix(1.0, 0.0, 0.0, 1.0, 0.0, 0.0)">
      <use height="1.9" transform="matrix(1.0, 0.0, 0.0, 1.0, 0.0, 0.0)" width="2.5" xlink:href="#shape13"/>
    </g>
    <g id="shape13" transform="matrix(1.0, 0.0, 0.0, 1.0, 0.0, 0.0)">
      <path d="M2.5 0.0 L2.15 1.25 0.25 1.9 Q-0.3 2.1 0.45 0.4 L2.5 0.0" fill="#990479" fill-rule="evenodd" stroke="none"/>
    </g>
    <g id="sprite12" transform="matrix(1.0, 0.0, 0.0, 1.0, 0.0, 0.0)">
      <use height="3.45" transform="matrix(1.0, 0.0, 0.0, 1.0, 0.0, 0.0)" width="22.25" xlink:href="#shape14"/>
    </g>
    <g id="shape14" transform="matrix(1.0, 0.0, 0.0, 1.0, 0.0, 0.0)">
      <path d="M17.55 2.3 L17.4 2.25 16.95 1.8 22.25 1.35 17.55 2.3" fill="#f79adf" fill-rule="evenodd" stroke="none"/>
      <path d="M0.4 0.85 L0.0 0.0 5.65 1.25 11.4 2.1 5.2 1.75 0.4 0.85" fill="#f79adf" fill-rule="evenodd" stroke="none"/>
      <path d="M12.7 2.4 Q12.4 2.0 13.15 1.7 14.3 1.25 14.6 1.7 14.95 2.15 13.9 2.5 L12.7 2.4" fill="#f79adf" fill-rule="evenodd" stroke="none"/>
      <path d="M6.05 3.2 L6.1 1.65 7.15 1.8 6.95 3.45 6.05 3.2" fill="#f79adf" fill-rule="evenodd" stroke="none"/>
    </g>
  </defs>
</svg>
